data/resources/icons/scalable/actions/window-normal-size-symbolic.svg

<?xml version="1.0" encoding="UTF-8" standalone="no"?>
<svg
   height="16px"
   viewBox="0 0 16 16"
   width="16px"
   version="1.1"
   id="svg10"
   sodipodi:docname="shrink-symbolic.svg"
   inkscape:version="1.2.1 (9c6d41e410, 2022-07-14)"
   xmlns:inkscape="http://www.inkscape.org/namespaces/inkscape"
   xmlns:sodipodi="http://sodipodi.sourceforge.net/DTD/sodipodi-0.dtd"
   xmlns="http://www.w3.org/2000/svg"
   xmlns:svg="http://www.w3.org/2000/svg">
  <path
     id="path1357"
     style="fill:#2e3436"
     d="M -35 5 L -35 7 C -35 8.6445234 -33.644523 10 -32 10 L -30 10 L -24 10 C -22.355475 10 -21 8.6445254 -21 7 L -21 5 L -23 5 L -23 7 C -23 7.5703094 -23.429691 8 -24 8 L -30 8 L -32 8 C -32.570308 8 -33 7.5703084 -33 7 L -33 5 L -35 5 z " />
  <defs
     id="defs14" />
  <sodipodi:namedview
     id="namedview12"
     pagecolor="#ffffff"
     bordercolor="#666666"
     borderopacity="1.0"
     inkscape:pageshadow="2"
     inkscape:pageopacity="0.0"
     inkscape:pagecheckerboard="0"
     showgrid="true"
     inkscape:zoom="16"
     inkscape:cx="-14.34375"
     inkscape:cy="4.34375"
     inkscape:window-width="2560"
     inkscape:window-height="1371"
     inkscape:window-x="0"
     inkscape:window-y="32"
     inkscape:window-maximized="1"
     inkscape:current-layer="svg10"
     inkscape:showpageshadow="2"
     inkscape:deskcolor="#d1d1d1">
    <inkscape:grid
       type="xygrid"
       id="grid831" />
  </sodipodi:namedview>
  <path
     id="path4"
     style="fill:#2e3436"
     d="m 24,0 c -1.644531,0 -3,1.355469 -3,3 v 10 c 0,1.644531 1.355469,3 3,3 h 2 v -2 h -2 c -0.570312,0 -1,-0.429688 -1,-1 V 3 c 0,-0.570312 0.429688,-1 1,-1 h 8 c 0.570312,0 1,0.429688 1,1 v 4 h 2 V 3 C 35,1.355469 33.644531,0 32,0 Z"
     sodipodi:nodetypes="ssssccssssssccsss" />
  <path
     d="M 14,4 V 6 H 2 V 4 Z m 0,0"
     id="path6"
     style="fill:#2e3436;stroke-width:1" />
  <g
     id="g1262"
     transform="rotate(90,24.5,16.5)">
    <path
       d="m 24,12 c 0,-0.550781 -0.449219,-1 -1,-1 H 19 V 7 C 19,6.449219 18.550781,6 18,6 17.449219,6 17,6.449219 17,7 v 5 c 0,0.550781 0.449219,1 1,1 h 5 c 0.550781,0 1,-0.449219 1,-1 z m 0,0"
       id="path1138"
       style="fill:#2e3436" />
    <path
       id="path1140"
       style="fill:#2e3436"
       d="M 10,9.5859375 V 11 H 8.5859375 l 4.7070315,4.707031 C 13.480469,15.894531 13.734375,16 14,16 c 0.265625,0 0.519531,-0.105469 0.707031,-0.292969 0.390625,-0.390625 0.390625,-1.023437 0,-1.414062 z"
       transform="rotate(-90,14.5,6.5)" />
    <path
       d="m 17,12 h 1 v 1 h -1 z m 0,0"
       id="path1142"
       style="fill:#2e3436" />
    <path
       d="m 17,6 h 1 v 1 h -1 z m 0,0"
       id="path1144"
       style="fill:#2e3436" />
    <path
       d="m 23,12 h 1 v 1 h -1 z m 0,0"
       id="path1146"
       style="fill:#2e3436" />
  </g>
  <rect
     style="fill:#2e3436;stroke:none;stroke-width:0.999999;-inkscape-stroke:none;stop-color:#000000"
     id="rect361"
     height="5"
     x="-90.979996"
     y="0.077757448"
     rx="1.25"
     ry="1.25"
     width="12" />
  <rect
     style="fill:#2e3436;stroke:none;stroke-width:0.999999;-inkscape-stroke:none;stop-color:#000000"
     id="rect415"
     height="8"
     x="-34.979992"
     y="-19.922243"
     rx="1.25"
     ry="1.25"
     width="12" />
  <path
     id="path417"
     style="fill:#2e3436"
     d="M 4,0 C 2.355473,0 1,1.355472 1,3 v 6 4 c 0,1.644527 1.355473,3 3,3 h 2 6 c 1.644529,0 3,-1.355471 3,-3 V 7 3 C 15,1.355472 13.644528,0 12,0 h -2 z m 0,2 h 6 2 c 0.570311,0 1,0.429689 1,1 v 4 6 c 0,0.570311 -0.429689,1 -1,1 H 6 4 C 3.42969,14 3,13.57031 3,13 V 9 3 C 3,2.429689 3.42969,2 4,2 Z" />
  <path
     id="path1347"
     style="font-variation-settings:normal;opacity:1;vector-effect:none;fill:#ffffff;fill-opacity:1;stroke-width:1;stroke-linecap:butt;stroke-linejoin:miter;stroke-miterlimit:4;stroke-dasharray:none;stroke-dashoffset:0;stroke-opacity:1;-inkscape-stroke:none;stop-color:#000000;stop-opacity:1"
     d="m -30,-18 4,2 -4,1.999999 z"
     sodipodi:nodetypes="cccc" />
  <path
     id="path1353"
     style="fill:#2e3436"
     d="M -32 0 C -33.644523 0 -35 1.3554756 -35 3 L -35 6 L -33 6 L -33 3 C -33 2.4296906 -32.570308 2 -32 2 L -26 2 L -24 2 C -23.429691 2 -23 2.4296906 -23 3 L -23 6 L -21 6 L -21 3 C -21 1.3554756 -22.355476 0 -24 0 L -26 0 L -32 0 z " />
  <path
     id="path1423"
     style="fill:#2e3436"
     d="M -55 3 L -55 4 C -55 5.6445218 -53.644521 7 -52 7 L -50 7 L -44 7 C -42.355477 7 -41 5.6445238 -41 4 L -41 3 L -43 3 L -43 4 C -43 4.5703088 -43.429692 5 -44 5 L -50 5 L -52 5 C -52.570307 5 -53 4.5703078 -53 4 L -53 3 L -55 3 z " />
  <path
     id="path1425"
     style="fill:#2e3436"
     d="M -52 0 C -53.644521 0 -55 1.3554772 -55 3 L -55 4 L -53 4 L -53 3 C -53 2.4296912 -52.570307 2 -52 2 L -46 2 L -44 2 C -43.429692 2 -43 2.4296912 -43 3 L -43 4 L -41 4 L -41 3 C -41 1.3554772 -42.355478 0 -44 0 L -46 0 L -52 0 z " />
</svg>

<?xml version="1.0" encoding="UTF-8" standalone="no"?>
<svg
   height="16px"
   viewBox="0 0 16 16"
   width="16px"
   version="1.1"
   id="svg10"
   sodipodi:docname="window-normal-size-symbolic.svg"
   inkscape:version="1.2.1 (9c6d41e410, 2022-07-14)"
   xmlns:inkscape="http://www.inkscape.org/namespaces/inkscape"
   xmlns:sodipodi="http://sodipodi.sourceforge.net/DTD/sodipodi-0.dtd"
   xmlns="http://www.w3.org/2000/svg"
   xmlns:svg="http://www.w3.org/2000/svg">
  <defs
     id="defs14" />
  <sodipodi:namedview
     id="namedview12"
     pagecolor="#ffffff"
     bordercolor="#666666"
     borderopacity="1.0"
     inkscape:pageshadow="2"
     inkscape:pageopacity="0.0"
     inkscape:pagecheckerboard="0"
     showgrid="true"
     inkscape:zoom="4"
     inkscape:cx="-99.375"
     inkscape:cy="22.875"
     inkscape:window-width="2560"
     inkscape:window-height="1371"
     inkscape:window-x="0"
     inkscape:window-y="32"
     inkscape:window-maximized="1"
     inkscape:current-layer="svg10"
     inkscape:showpageshadow="2"
     inkscape:deskcolor="#d1d1d1">
    <inkscape:grid
       type="xygrid"
       id="grid831" />
  </sodipodi:namedview>
  <path
     id="path6"
     style="fill:#2e3436;stroke-width:1"
     d="M 4 0 C 2.3554746 0 1 1.3554736 1 3 L 1 9 L 1 13 C 1 14.644525 2.3554746 16 4 16 L 6 16 L 12 16 C 13.644527 16 15 14.644527 15 13 L 15 7 L 15 3 C 15 1.3554736 13.644526 0 12 0 L 10 0 L 4 0 z M 4 2 L 10 2 L 12 2 C 12.57031 2 13 2.4296896 13 3 L 13 4 L 3 4 L 3 3 C 3 2.4296896 3.4296906 2 4 2 z M 3 6 L 13 6 L 13 7 L 13 13 C 13 13.57031 12.57031 14 12 14 L 6 14 L 4 14 C 3.4296906 14 3 13.570309 3 13 L 3 9 L 3 6 z " />
</svg>
